-----BEGIN PGP SIGNATURE-----

iQJPBAABCAA5FiEEakd2YokJez2cFu8fJwoQfh8dnMwFAmpM9nEbFIAAAAAABAAO
bWFudTIsMi41KzEuMTIsMiwxAAoJECcKEH4fHZzMtCoP+wQWSioYIWfBegd3P95w
OmpknnZsaxdNJxnYRweKFgnbko7/gajkXJPxnJyj+g7rpbIKKqGv5RR29TE8dC4N
iuKnX2CtfbQOJTdJTkrKLt94G/sqYk8PB8VgMEgWtX921zNZ6kDzKvOGtxq0/we8
LNhGzPZXPMUuJWtHxTN5kLIERagDfj+5c7lQqbVzXdGleWH95YjUcuik7ZBkswO0
/8S8WfbtWtCKkVGlb91/4UvirLdHldXsLsBLvaELLosqhaiXfMHKlfdJxc9NbPOG
kbCNUjoPlvwDDHhX6CfqAF7alOAS8hNxJ1Au+qBki9QTqkglqEyRoAGQy4P2+Yz8
XM4U1mfzQA51lNqs+kTHBjQpylTwTWJ9hS+jgFmIXkBlpBQBixSmxY8QWCiItllW
pS+XMAIXzPV/9XtNgKqiziXSPlKw90NSrkGTHaN6tWewqt/rA9Z7KP+qO3cbnapV
Cxnh+RrO50NOXVD7nsxuSlNXKogyN9UVoVTaTKnPxb+5bQUoJOGK9/3erUJPdNIq
qblWa+I4BhCQtVy7xUtFP9rdJhBQbjdXrrlDfKwb6XQQf4LnCOBnZ2Hz3Mndh8fC
lADDatFU+sowgQXMIzYnk7wtKCdB55wFEYb4bFN6hSqXuBuhl75nSs45SD3GlY4m
ss+Tf3B1gpolqbrOYrxvJlk8
=sEMx
-----END PGP SIGNATURE-----
